X: 39525
T: Taureen Derby
R: polka
M: 2/4
K: Edorian
|:BE FE|BE FE|D>E FA|DE FA|
BE FE|BE FE|D>E FA|FE E2:|
|:ef/e/ dB|ef/e/ dB|AF dF|AB/c/ d^d|
ef/e/ dB|ef/e/ dB|AF dA|FE E2:|

